build/images/icon-question.svg

<svg width="20" height="20" viewBox="0 0 20 20" fill="none" xmlns="http://www.w3.org/2000/svg">
<path d="M10 0C4.479 0 0 4.47335 0 9.99474C0 15.5214 4.479 20 9.99998 20C15.524 20 19.9992 15.5214 19.9992 9.99474C19.9993 4.47335 15.524 0 10 0ZM10.7126 15.559C10.4804 15.7657 10.2112 15.8696 9.90629 15.8696C9.59081 15.8696 9.31563 15.7676 9.08073 15.5631C8.84547 15.3591 8.7276 15.0734 8.7276 14.7063C8.7276 14.3807 8.84167 14.1066 9.06906 13.8845C9.29645 13.6624 9.57539 13.5514 9.90629 13.5514C10.2319 13.5514 10.506 13.6624 10.7285 13.8845C10.9506 14.1066 11.062 14.3807 11.062 14.7063C11.0616 15.0681 10.9452 15.3524 10.7126 15.559ZM13.6086 8.37939C13.4302 8.71029 13.2183 8.99561 12.9725 9.2362C12.7274 9.47675 12.2866 9.88105 11.6503 10.4495C11.4749 10.6099 11.3338 10.7506 11.228 10.8718C11.1222 10.9935 11.0431 11.1045 10.9916 11.2054C10.9396 11.3062 10.8997 11.4072 10.8715 11.508C10.8432 11.6085 10.8007 11.7859 10.7431 12.0392C10.6452 12.5768 10.3377 12.8455 9.8208 12.8455C9.552 12.8455 9.32614 12.7578 9.14205 12.582C8.9587 12.4062 8.86724 12.1453 8.86724 11.799C8.86724 11.365 8.93462 10.9889 9.06902 10.6708C9.20267 10.3527 9.38148 10.0738 9.60359 9.83321C9.82608 9.59266 10.1257 9.30729 10.5033 8.97639C10.8342 8.6869 11.0733 8.46858 11.2204 8.32136C11.368 8.17381 11.4919 8.00968 11.5924 7.82897C11.6936 7.64789 11.7433 7.45176 11.7433 7.23984C11.7433 6.82613 11.5901 6.47754 11.2822 6.19333C10.9747 5.90911 10.5779 5.7668 10.0919 5.7668C9.52306 5.7668 9.10444 5.91022 8.83565 6.19708C8.56686 6.48394 8.33988 6.9063 8.15352 7.46459C7.97735 8.04886 7.64382 8.34095 7.15328 8.34095C6.86378 8.34095 6.61949 8.23892 6.42035 8.03487C6.22158 7.83082 6.12219 7.60987 6.12219 7.37196C6.12219 6.88106 6.27993 6.38339 6.59504 5.87933C6.91051 5.37528 7.37053 4.95778 7.97545 4.62725C8.58001 4.29635 9.28589 4.13069 10.0919 4.13069C10.8414 4.13069 11.5028 4.26921 12.0765 4.54592C12.6502 4.82222 13.0937 5.19832 13.4065 5.67413C13.719 6.14956 13.8755 6.66645 13.8755 7.22474C13.8763 7.66336 13.7871 8.04849 13.6086 8.37939Z" fill="#808080"/>
</svg>

<svg width="20" height="20" fill="none" xmlns="http://www.w3.org/2000/svg"><path d="M10 0C4.479 0 0 4.473 0 9.995 0 15.52 4.479 20 10 20c5.524 0 10-4.479 10-10.005C20 4.473 15.523 0 10 0zm.713 15.559c-.233.207-.502.31-.807.31-.315 0-.59-.101-.825-.306-.236-.204-.353-.49-.353-.857 0-.325.114-.6.341-.822.227-.222.506-.333.837-.333.326 0 .6.111.822.333.223.223.334.497.334.822 0 .362-.117.646-.35.853zm2.896-7.18c-.179.331-.39.617-.636.857s-.686.645-1.323 1.213c-.175.16-.316.302-.422.423a1.719 1.719 0 00-.236.333 1.6 1.6 0 00-.12.303c-.029.1-.071.278-.129.531-.098.538-.405.806-.922.806a.945.945 0 01-.679-.263c-.183-.176-.275-.437-.275-.783 0-.434.068-.81.202-1.128a2.85 2.85 0 01.535-.838c.222-.24.522-.526.9-.857.33-.29.57-.507.716-.655.148-.147.272-.311.372-.492.102-.181.151-.377.151-.59 0-.413-.153-.761-.46-1.046-.308-.284-.705-.426-1.191-.426-.569 0-.988.143-1.256.43-.27.287-.496.71-.682 1.268-.177.584-.51.876-1 .876a.984.984 0 01-.734-.306c-.198-.204-.298-.425-.298-.663 0-.49.158-.989.473-1.493.316-.504.776-.921 1.38-1.252.605-.33 1.31-.496 2.117-.496.75 0 1.41.138 1.984.415.574.276 1.018.652 1.33 1.128.313.476.47.992.47 1.55 0 .44-.089.824-.267 1.155z" fill="gray"/></svg>
